!!!!SEGMENT: pl-kk--kk-i-88--001-002_golabek-jakub--missa-1-christe.krn
!!!cenid: 17xx:2567
!!!COM: Gołąbek, Jakub
!!!COM-rismID: pe30008748
!!!CDT: 1739-1789/03/30
!!!CNT: Polish
!!!OPR: Missa 1
!!!OTL: Christe
!!!OMV: 002
!!!PDT:
!!!AGN: Sacred; Mass
!!!YEC: Copyright 2022 Narodowy Instytut Fryderyka Chopina (https://polishscores.org)
!!!YEM: License CC-BY-4.0 (https://creativecommons.org/licenses/by/4.0)
!!!SMS-siglum: PL-Kk
!!!SMS-shelfmark: Kk.I.88
!!!SMS-variant:
!!!SMS-altvar:
!!!SMS-shelfwork: 001-002 M
!!!NIFC-rismSourceID: 1001164072
!!!NIFC-rismChildID: 1001155167
!!!NIFC-islandoraID:
!!!URL-pdf-islandora: https://repozytorium.nifc.pl/islandora/object/pl-kk%3A3086/datastream/PDF/view
!!!URL-scan: https://polish.musicsources.pl/pl/lokalizacje/galeria/rekopisy/6148-missa/4 @EN{Scan on Polish Music Sources Website} @PL{Skany w portalu Dziedzictwo Muzyki Polskiej w otwartym dostępie}
!!!IIIF:
!!!ONB-nifc: UWAGA: C - f. 2r-3v; A - f. 10r-11v; T - f. 18r-19v; B - f. 26r-27v; B rip - f. 33r-34r. Proszę uwzględniać B rip. Części Mszy: 1. Kyrie, 2. Christe, 3. Et in terra, 4. Quoniam, 5. Sanctus, 6. Osanna, 7. Benedictus, 8. Agnus Dei, 9. Dona nobis
!!!OMD:
!!!AIN: 1 alto 2 bass 1 canto 1 tenor
!!!key: C
**kern	**text	**dynam	**kern	**text	**dynam	**kern	**text	**dynam	**kern	**text	**dynam	**kern	**text	**dynam
*part5	*part5	*part5	*part4	*part4	*part4	*part3	*part3	*part3	*part2	*part2	*part2	*part1	*part1	*part1
*staff5	*staff5	*	*staff4	*staff4	*	*staff3	*staff3	*	*staff2	*staff2	*	*staff1	*staff1	*
*I"Baſso E ripieno	*	*	*I"Basso	*	*	*I"Tenore	*	*	*I"Alto	*	*	*I"Canto	*	*
*I'B rip	*	*	*I'B	*	*	*I'T	*	*	*I'A	*	*	*I'S	*	*
*Ibass	*	*	*Ibass	*	*	*Itenor	*	*	*Ialto	*	*	*Icanto	*	*
*ICvox	*	*	*ICvox	*	*	*ICvox	*	*	*ICvox	*	*	*ICvox	*	*
*clefF4	*	*	*clefF4	*	*	*clefC4	*	*	*clefC3	*	*	*clefC1	*	*
*k[]	*	*	*k[]	*	*	*k[]	*	*	*k[]	*	*	*k[]	*	*
*C:	*	*	*C:	*	*	*C:	*	*	*C:	*	*	*C:	*	*
*M2/2	*	*	*M2/2	*	*	*M2/2	*	*	*M2/2	*	*	*M2/2	*	*
*met(c|)	*	*	*met(c|)	*	*	*met(c|)	*	*	*met(c|)	*	*	*met(c|)	*	*
=1	=1	=1	=1	=1	=1	=1	=1	=1	=1	=1	=1	=1	=1	=1
!	!	!LO:DY:a	!	!	!LO:DY:a	!	!	!	!	!	!	!	!	!
4C\	Chri-	<	4C\	Chri-	<	1G	Chris-	.	1e	Chris-	.	1cc	Chri-	.
4E\	.	.	4E\	.	.	.	.	.	.	.	.	.	.	.
4G\	.	[	4G\	.	[	.	.	.	.	.	.	.	.	.
4c\	.	.	4c\	.	.	.	.	.	.	.	.	.	.	.
=2	=2	=2	=2	=2	=2	=2	=2	=2	=2	=2	=2	=2	=2	=2
*	*	*	*	*	*	*	*	*	*2\right	*	*	*2\right	*	*
4B\	-ste	.	4B\	-ste	.	2G/	-te	.	2d\	-te	.	2b\	-ste	.
4G\	e-	.	4G\	e-	.	.	.	.	.	.	.	.	.	.
*2\right	*	*	*2\right	*	*	*	*	*	*	*	*	*	*	*
2c\	-lei-	.	2c\	-lei-	.	2G/	e-	.	2e\	e-	.	2cc\	e-	.
=3	=3	=3	=3	=3	=3	=3	=3	=3	=3	=3	=3	=3	=3	=3
*	*	*	*	*	*	*2\right	*	*	*	*	*	*	*	*
1G	.	.	1G	.	.	2.B\	-lei-	.	4f\	-lei-	.	4dd\	-lei-	.
.	.	.	.	.	.	.	.	.	4e\	.	.	4cc\	.	.
.	.	.	.	.	.	.	.	.	4f\	.	.	4dd\	.	.
.	.	.	.	.	.	4G\	.	.	4d\	.	.	4b\	.	.
=4	=4	=4	=4	=4	=4	=4	=4	=4	=4	=4	=4	=4	=4	=4
2C/	-son	.	2C/	-son	.	2G/	-son	.	2e\	-son	.	2cc\	-son	.
2c\	e-	.	2c\	e-	.	2c\	e-	.	2g\	e-	.	2ee\	e-	.
=5	=5	=5	=5	=5	=5	=5	=5	=5	=5	=5	=5	=5	=5	=5
!	!	!LO:DY:a	!	!	!LO:DY:a	!	!	!	!	!	!	!	!	!
1G	-lei-	>]	1G	-lei-	>]	2B\	-lei-	.	2f\	-lei-	.	2dd\	-lei-	.
.	.	.	.	.	.	2c\	.	.	2e\	.	.	2cc\	.	.
=6	=6	=6	=6	=6	=6	=6	=6	=6	=6	=6	=6	=6	=6	=6
2G\	-son,	.	2G\	-son,	.	2G/	-son,	.	2d\	-son	.	2b\	-son,	.
2r	.	.	2r	.	.	2r	.	.	2r	.	.	2r	.	.
=7	=7	=7	=7	=7	=7	=7	=7	=7	=7	=7	=7	=7	=7	=7
4C/	Chri-	.	4C/	Chri-	.	1c	Chris-	.	4g\	Chri-	.	4ee\	Chri-	.
4E/	.	.	4E/	.	.	.	.	.	4e\	.	.	4cc\	.	.
4C/	.	.	4C/	.	.	.	.	.	4c\	.	.	2ee\	.	.
4E/	.	.	4E/	.	.	.	.	.	4B-X\	.	.	.	.	.
!	!	!	!	!	!	!	!	!	!	!	!	!LO:LB:g=original	!	!
=8	=8	=8	=8	=8	=8	=8	=8	=8	=8	=8	=8	=8	=8	=8
2F\	-ste	.	2F\	-ste	.	2c\	-te	.	2A/	-ste	.	2ff\	-ste	.
2F\	e-	.	2F\	e-	.	2c\	e-	.	4a\	e-	.	4ff\	e-	.
.	.	.	.	.	.	.	.	.	4g\	.	.	4ee\	.	.
!	!	!	!LO:LB:g=original	!	!	!	!	!	!LO:LB:g=original	!	!	!	!	!
=9	=9	=9	=9	=9	=9	=9	=9	=9	=9	=9	=9	=9	=9	=9
2F\	-lei-	.	2F\	-lei-	.	1A	-lei-	.	4f\	-lei-	.	4dd\	-lei-	.
.	.	.	.	.	.	.	.	.	4e\	.	.	4cc\	.	.
2F#X\	.	.	2F#X\	.	.	.	.	.	4d\	.	.	4b\	.	.
.	.	.	.	.	.	.	.	.	4e\	.	.	4cc\	.	.
!	!	!	!	!	!	!LO:LB:g=original	!	!	!	!	!	!	!	!
=10	=10	=10	=10	=10	=10	=10	=10	=10	=10	=10	=10	=10	=10	=10
2G\	-son	.	2G\	-son	.	2G/	-son	.	2d\	-son	.	2b\	-son	.
2r	.	.	2r	.	.	2r	.	.	2r	.	.	2r	.	.
=11	=11	=11	=11	=11	=11	=11	=11	=11	=11	=11	=11	=11	=11	=11
4G\	Chri-	.	4G\	Chri-	.	4B\	Chris-	.	1f	Chri-	.	1dd	Chris-	.
4A\	.	.	4A\	.	.	4c\	.	.	.	.	.	.	.	.
4B\	.	.	4B\	.	.	4d\	.	.	.	.	.	.	.	.
4G\	.	.	4G\	.	.	4B\	.	.	.	.	.	.	.	.
!LO:LB:g=original	!	!	!	!	!	!	!	!	!	!	!	!	!	!
=12	=12	=12	=12	=12	=12	=12	=12	=12	=12	=12	=12	=12	=12	=12
4c\	-ste	.	4c\	-ste	.	2G/	-te	.	2e\	-ste	.	2cc\	-te	.
4G\	.	.	4G\	.	.	.	.	.	.	.	.	.	.	.
4E\	e-	.	4E\	e-	.	2c\	e-	.	2g\	e-	.	2ee\	e-	.
4C\	.	.	4C\	.	.	.	.	.	.	.	.	.	.	.
=13	=13	=13	=13	=13	=13	=13	=13	=13	=13	=13	=13	=13	=13	=13
4F\	-lei-	.	4F\	-lei-	.	2A/	-lei-	.	2f\	-lei-	.	2dd\	-lei-	.
4D\	.	.	4D\	.	.	.	.	.	.	.	.	.	.	.
2G\	.	.	2G\	.	.	2G/	.	.	2d\	.	.	2b\	.	.
=14	=14	=14	=14	=14	=14	=14	=14	=14	=14	=14	=14	=14	=14	=14
2C/	-son	.	2C/	-son	.	2G/	-son	.	2e\	-son	.	2cc\	-son	.
2r	.	.	2r	.	.	2r	.	.	2r	.	.	2r	.	.
=15	=15	=15	=15	=15	=15	=15	=15	=15	=15	=15	=15	=15	=15	=15
!	!	!LO:DY:a:rj	!	!	!LO:DY:a:rj	!	!	!LO:DY:a:t=p&colon;:rj	!	!	!LO:DY:a:t=p&colon;:rj	!	!	!LO:DY:a:t=p&colon;:rj
4G\	Chri-	p	4G\	Chri-	p	4B\	Chri-	p	1f	Chris-	p	1dd	Chris-	p
4A\	.	.	4A\	.	.	4c\	.	.	.	.	.	.	.	.
4B\	.	.	4B\	.	.	4d\	.	.	.	.	.	.	.	.
4G\	.	.	4G\	.	.	4B\	.	.	.	.	.	.	.	.
=16	=16	=16	=16	=16	=16	=16	=16	=16	=16	=16	=16	=16	=16	=16
4c\	-ste	.	4c\	-ste	.	2G/	-ste	.	2e\	-te	.	2cc\	-te	.
4G\	.	.	4G\	.	.	.	.	.	.	.	.	.	.	.
4E\	e-	.	4E\	e-	.	2c\	e-	.	2g\	e-	.	2ee\	e-	.
4C\	.	.	4C\	.	.	.	.	.	.	.	.	.	.	.
!	!	!	!LO:LB:g=original	!	!	!	!	!	!	!	!	!	!	!
=17	=17	=17	=17	=17	=17	=17	=17	=17	=17	=17	=17	=17	=17	=17
4F\	-lei-	.	4F\	-lei-	.	2A/	-lei-	.	2f\	-lei-	.	2dd\	-lei-	.
4D\	.	.	4D\	.	.	.	.	.	.	.	.	.	.	.
2G\	.	.	2G\	.	.	2G/	.	.	2d\	.	.	2b\	.	.
!	!	!	!	!	!	!LO:LB:g=original	!	!	!	!	!	!LO:LB:g=original	!	!
=18	=18	=18	=18	=18	=18	=18	=18	=18	=18	=18	=18	=18	=18	=18
2C/	-son,	.	2C/	-son,	.	2G/	-son	.	2e\	-son,	.	2cc\	-son,	.
!	!	!LO:DY:a	!	!	!LO:DY:a:t=fo	!	!	!LO:DY:a:t=for	!	!	!LO:DY:a:t=for	!	!	!LO:DY:a:t=fo.:rj
2C/	e-	f	2C/	e-	f	2c\	e-	f	2g\	e-	f	2ee\	e-	f
!	!	!	!	!	!	!	!	!	!LO:LB:g=original	!	!	!	!	!
=19	=19	=19	=19	=19	=19	=19	=19	=19	=19	=19	=19	=19	=19	=19
1F	-lei-	.	1F	-lei-	.	1A	-lei-	.	4a\	-lei-	.	4ff\	-lei-	.
.	.	.	.	.	.	.	.	.	4g\	.	.	4ee\	.	.
.	.	.	.	.	.	.	.	.	4f\	.	.	4dd\	.	.
.	.	.	.	.	.	.	.	.	4e\	.	.	4cc\	.	.
=20	=20	=20	=20	=20	=20	=20	=20	=20	=20	=20	=20	=20	=20	=20
4G\	.	.	4G\	.	.	2G/	-son	.	2d\	-son	.	2b\	-son	.
4F\	.	.	4F\	.	.	.	.	.	.	.	.	.	.	.
4E\	.	.	4E\	.	.	2G/	e-	.	2e\	e-	.	2cc\	e-	.
4F\	.	.	4F\	.	.	.	.	.	.	.	.	.	.	.
=21	=21	=21	=21	=21	=21	=21	=21	=21	=21	=21	=21	=21	=21	=21
2G\	.	.	2G\	.	.	1G	-lei-	.	2e\	-lei-	.	2cc\	-lei-	.
2GG/	.	.	2GG/	.	.	.	.	.	2d\	.	.	2b\	.	.
=22	=22	=22	=22	=22	=22	=22	=22	=22	=22	=22	=22	=22	=22	=22
!LO:TX:a:t=Kyrie\n da\n Capo	!	!	!LO:TX:b:t=Kyrie da Capo	!	!	!LO:TX:b:t=Kyrie da Capo	!	!	!LO:TX:b:t=Kyrie da Capo	!	!	!LO:TX:b:t=Kyrie da Capo	!	!
1C	-son	.	1C	-son	.	1G	-son	.	1e	-son	.	1cc	-son	.
==	==	==	==;;	==	==	==;;	==	==	==;;	==	==	==;;	==	==
*-	*-	*-	*-	*-	*-	*-	*-	*-	*-	*-	*-	*-	*-	*-
!!!system-decoration: [(s1,s2,s3,s4)]s5
!!!ENC: Berenika Jozajtis
!!!END: 2024-02-22
!!!EED: Marta Chmielewska
!!!EEV: 2024-04-29
